src/assets/icons/media-reading-writing,fancy,note-filled-alt.svg

<svg width="48" height="48" viewBox="0 0 48 48" fill="none" xmlns="http://www.w3.org/2000/svg">
<path opacity="0.2" fill-rule="evenodd" clip-rule="evenodd" d="M6.17157 6.17157C5 7.34315 5 9.22876 5 13V35C5 38.7712 5 40.6569 6.17157 41.8284C7.34315 43 9.22876 43 13 43H30V34C30 31.7909 31.7909 30 34 30H43V13C43 9.22876 43 7.34315 41.8284 6.17157C40.6569 5 38.7712 5 35 5H13C9.22876 5 7.34315 5 6.17157 6.17157ZM11 13C11 11.8954 11.8954 11 13 11H33C34.1046 11 35 11.8954 35 13C35 14.1046 34.1046 15 33 15H13C11.8954 15 11 14.1046 11 13ZM11 21C11 19.8954 11.8954 19 13 19H28C29.1046 19 30 19.8954 30 21C30 22.1046 29.1046 23 28 23H13C11.8954 23 11 22.1046 11 21ZM13 27C11.8954 27 11 27.8954 11 29C11 30.1046 11.8954 31 13 31H21C22.1046 31 23 30.1046 23 29C23 27.8954 22.1046 27 21 27H13Z" fill="black"/>
<path d="M11 13C11 11.8954 11.8954 11 13 11H33C34.1046 11 35 11.8954 35 13C35 14.1046 34.1046 15 33 15H13C11.8954 15 11 14.1046 11 13Z" fill="black"/>
<path d="M11 21C11 19.8954 11.8954 19 13 19H28C29.1046 19 30 19.8954 30 21C30 22.1046 29.1046 23 28 23H13C11.8954 23 11 22.1046 11 21Z" fill="black"/>
<path d="M11 29C11 27.8954 11.8954 27 13 27H21C22.1046 27 23 27.8954 23 29C23 30.1046 22.1046 31 21 31H13C11.8954 31 11 30.1046 11 29Z" fill="black"/>
<path opacity="0.6" d="M43 30H34C31.7909 30 30 31.7909 30 34V43L43 30Z" fill="black"/>
</svg>

<svg xmlns="http://www.w3.org/2000/svg" width="48" height="48" fill="none" viewBox="0 0 48 48">
  <path fill="#000" fill-rule="evenodd" d="M6.172 6.172C5 7.343 5 9.229 5 13v22c0 3.771 0 5.657 1.172 6.828C7.343 43 9.229 43 13 43h17v-9a4 4 0 014-4h9V13c0-3.771 0-5.657-1.172-6.828C40.657 5 38.771 5 35 5H13C9.229 5 7.343 5 6.172 6.172zM11 13a2 2 0 012-2h20a2 2 0 110 4H13a2 2 0 01-2-2zm0 8a2 2 0 012-2h15a2 2 0 110 4H13a2 2 0 01-2-2zm2 6a2 2 0 100 4h8a2 2 0 100-4h-8z" clip-rule="evenodd" opacity=".2"/>
  <path fill="#000" d="M11 13a2 2 0 012-2h20a2 2 0 110 4H13a2 2 0 01-2-2zM11 21a2 2 0 012-2h15a2 2 0 110 4H13a2 2 0 01-2-2zM11 29a2 2 0 012-2h8a2 2 0 110 4h-8a2 2 0 01-2-2z"/>
  <path fill="#000" d="M43 30h-9a4 4 0 00-4 4v9l13-13z" opacity=".6"/>
</svg>
